;FLAVOR:Marlin
;TIME:499
;Filament used: 1.39956m
;Layer height: 0.25
;MINX:142.701
;MINY:142.702
;MINZ:0.25
;MAXX:172.299
;MAXY:172.298
;MAXZ:50
;Generated with Cura_SteamEngine 5.3.0
M140 S85
M105
M190 S85
M104 S210
M105
M109 S210
M82 ;absolute extrusion mode
G28 ; home
M593 F24.55;
M413 S1;
G92 E0
G92 E0
G1 F8700 E-3.5
;LAYER_COUNT:200
;LAYER:0
M106 S255
M204 S3000
G0 F15230.8 X153.616 Y153.961 Z0.25
M204 S6000
;TYPE:SKIRT
G1 F8400 E0
G1 F7884.3 X154.108 Y153.49 E0.02832
G1 X154.467 Y153.206 E0.04735
G1 X155.047 Y152.855 E0.07553
G1 X155.463 Y152.658 E0.09467
G1 X156.136 Y152.427 E0.12425
G1 X156.544 Y152.334 E0.14165
G1 X157.269 Y152.251 E0.17199
G1 X158.053 Y152.275 E0.2046
G1 X158.832 Y152.418 E0.23753
G1 X159.479 Y152.633 E0.26587
G1 X159.893 Y152.823 E0.28481
G1 X160.689 Y153.305 E0.3235
G1 X161.332 Y153.908 E0.36015
G1 X161.646 Y154.273 E0.38017
G1 X162.002 Y154.791 E0.4063
G1 X162.392 Y155.585 E0.44308
G1 X162.586 Y156.184 E0.46925
G1 X162.689 Y156.68 E0.49031
G1 X162.753 Y157.464 E0.52302
G1 X162.723 Y158.066 E0.54808
G1 X162.651 Y158.532 E0.56768
G1 X162.467 Y159.209 E0.59685
G1 X162.313 Y159.605 E0.61451
G1 X162.047 Y160.111 E0.63828
G1 X161.768 Y160.564 E0.6604
G1 X161.506 Y160.9 E0.67811
G1 X160.959 Y161.454 E0.71048
G1 X160.657 Y161.699 E0.72665
G1 X160.041 Y162.099 E0.75718
G1 X159.35 Y162.419 E0.78884
G1 X158.735 Y162.606 E0.81557
G1 X158.262 Y162.697 E0.83559
G1 X157.701 Y162.74 E0.85899
G1 X157.171 Y162.744 E0.88102
G1 X156.346 Y162.626 E0.91567
G1 X155.645 Y162.415 E0.94611
G1 X155 Y162.121 E0.97558
G1 X154.286 Y161.656 E1.011
G1 X153.738 Y161.167 E1.04154
G1 X153.266 Y160.612 E1.07183
G1 X152.892 Y160.024 E1.1008
G1 X152.552 Y159.262 E1.13549
G1 X152.363 Y158.593 E1.16439
G1 X152.254 Y157.945 E1.19171
G1 X152.267 Y157.042 E1.22926
G1 X152.358 Y156.474 E1.25317
G1 X152.54 Y155.716 E1.28558
G1 X152.899 Y154.963 E1.32026
G1 X153.161 Y154.537 E1.34106
G1 X153.616 Y153.961 E1.37157
M204 S3000
G0 F15230.8 X153.339 Y153.672
M204 S6000
G1 F7884.3 X153.831 Y153.201 E1.39989
G1 X154.244 Y152.873 E1.42182
G1 X154.876 Y152.493 E1.45248
G1 X155.292 Y152.296 E1.47161
G1 X156.047 Y152.037 E1.5048
G1 X156.455 Y151.944 E1.5222
G1 X157.281 Y151.851 E1.55676
G1 X158.065 Y151.875 E1.58937
G1 X158.958 Y152.038 E1.62711
G1 X159.646 Y152.269 E1.65728
G1 X160.088 Y152.473 E1.67752
G1 X160.759 Y152.88 E1.71015
G1 X161.111 Y153.152 E1.72864
G1 X161.606 Y153.616 E1.75685
G1 X161.976 Y154.046 E1.78043
G1 X162.332 Y154.564 E1.80656
G1 X162.703 Y155.246 E1.83884
G1 X162.967 Y156.061 E1.87446
G1 X163.086 Y156.63 E1.89863
G1 X163.153 Y157.484 E1.93424
G1 X163.123 Y158.086 E1.9593
G1 X163.037 Y158.637 E1.98249
G1 X162.84 Y159.354 E2.0134
G1 X162.686 Y159.75 E2.03106
G1 X162.388 Y160.321 E2.05784
G1 X162.109 Y160.774 E2.07996
G1 X161.8 Y161.171 E2.10088
G1 X161.211 Y161.765 E2.13566
G1 X160.909 Y162.01 E2.15182
G1 X160.22 Y162.457 E2.18597
G1 X159.505 Y162.788 E2.21873
G1 X158.851 Y162.989 E2.24717
G1 X158.293 Y163.096 E2.27079
G1 X157.732 Y163.139 E2.29418
G1 X157.13 Y163.142 E2.31921
G1 X156.272 Y163.019 E2.35525
G1 X155.479 Y162.779 E2.3897
G1 X154.794 Y162.464 E2.42104
G1 X154.4 Y162.228 E2.44014
G1 X153.756 Y161.736 E2.47383
G1 X153.441 Y161.435 E2.49194
G1 X152.928 Y160.827 E2.52502
G1 X152.458 Y160.089 E2.56139
G1 X152.167 Y159.371 E2.5936
G1 X151.978 Y158.702 E2.62251
G1 X151.888 Y158.166 E2.6451
G1 X151.858 Y157.641 E2.66696
G1 X151.872 Y156.979 E2.69449
G1 X151.969 Y156.381 E2.71968
G1 X152.168 Y155.567 E2.75452
G1 X152.549 Y154.77 E2.79125
G1 X152.823 Y154.323 E2.81304
G1 X153.339 Y153.672 E2.84758
M204 S3000
G0 F15230.8 X152.921 Y153.518
M204 S6000
G1 F7884.3 X153.554 Y152.912 E2.88401
G1 X154.027 Y152.536 E2.90913
G1 X154.705 Y152.131 E2.94197
G1 X155.121 Y151.934 E2.9611
G1 X155.958 Y151.647 E2.99789
G1 X156.366 Y151.554 E3.01529
G1 X157.293 Y151.451 E3.05407
G1 X158.077 Y151.475 E3.08668
G1 X159.085 Y151.659 E3.12928
G1 X159.814 Y151.906 E3.16128
G1 X160.283 Y152.123 E3.18276
G1 X161.004 Y152.563 E3.21788
G1 X161.356 Y152.835 E3.23637
G1 X161.88 Y153.324 E3.26617
G1 X162.306 Y153.819 E3.29332
G1 X162.662 Y154.337 E3.31946
G1 X162.958 Y154.882 E3.34524
G1 X163.154 Y155.339 E3.36591
G1 X163.348 Y155.938 E3.39209
G1 X163.483 Y156.581 E3.41941
G1 X163.553 Y157.504 E3.45789
G1 X163.523 Y158.106 E3.48295
G1 X163.423 Y158.743 E3.50976
G1 X163.226 Y159.46 E3.54067
G1 X163.041 Y159.935 E3.56186
G1 X162.729 Y160.531 E3.58983
G1 X162.425 Y161.02 E3.61377
G1 X161.998 Y161.569 E3.64269
G1 X161.463 Y162.076 E3.67333
G1 X160.812 Y162.566 E3.70721
G1 X160.399 Y162.815 E3.72726
G1 X159.66 Y163.157 E3.76111
G1 X158.969 Y163.371 E3.79119
G1 X158.324 Y163.495 E3.81849
G1 X157.763 Y163.538 E3.84189
G1 X157.089 Y163.54 E3.86991
G1 X156.169 Y163.406 E3.90856
G1 X155.312 Y163.142 E3.94584
G1 X154.588 Y162.807 E3.97901
G1 X154.168 Y162.554 E3.99939
G1 X153.501 Y162.045 E4.03428
G1 X153.144 Y161.703 E4.05483
G1 X152.59 Y161.042 E4.09069
G1 X152.1 Y160.272 E4.12863
G1 X151.782 Y159.48 E4.16411
G1 X151.593 Y158.811 E4.19302
G1 X151.489 Y158.189 E4.21924
G1 X151.458 Y157.633 E4.24239
G1 X151.477 Y156.915 E4.27225
G1 X151.58 Y156.286 E4.29875
G1 X151.793 Y155.427 E4.33554
G1 X152.199 Y154.576 E4.37474
G1 X152.485 Y154.109 E4.39751
G1 X152.921 Y153.518 E4.42804
M204 S3000
G0 F15230.8 X152.627 Y153.245
M204 S6000
G1 F7884.3 X153.277 Y152.623 E4.46545
G1 X153.806 Y152.203 E4.49353
G1 X154.534 Y151.769 E4.52877
G1 X154.95 Y151.572 E4.5479
G1 X155.869 Y151.257 E4.58829
G1 X156.322 Y151.156 E4.60759
G1 X157.249 Y151.053 E4.64637
G1 X158.089 Y151.075 E4.6813
G1 X159.213 Y151.28 E4.7288
G1 X159.982 Y151.543 E4.76259
G1 X160.64 Y151.848 E4.79275
G1 X161.451 Y152.378 E4.83302
G1 X162.178 Y153.057 E4.87438
G1 X162.636 Y153.592 E4.90366
G1 X163.014 Y154.146 E4.93155
G1 X163.326 Y154.724 E4.95885
G1 X163.535 Y155.216 E4.98108
G1 X163.729 Y155.815 E5.00725
G1 X163.927 Y156.755 E5.04719
G1 X163.953 Y157.524 E5.07918
G1 X163.923 Y158.126 E5.10424
G1 X163.809 Y158.849 E5.13467
G1 X163.612 Y159.566 E5.16559
G1 X163.414 Y160.08 E5.18849
G1 X163.069 Y160.742 E5.21952
G1 X162.741 Y161.266 E5.24522
G1 X162.302 Y161.83 E5.27494
G1 X161.715 Y162.387 E5.30858
G1 X160.846 Y163.039 E5.35375
G1 X159.95 Y163.484 E5.39534
G1 X159.087 Y163.753 E5.43292
G1 X158.39 Y163.89 E5.46245
G1 X157.794 Y163.937 E5.48731
G1 X156.857 Y163.938 E5.52627
G1 X156.066 Y163.793 E5.5597
G1 X155.18 Y163.52 E5.59825
G1 X154.382 Y163.15 E5.63481
G1 X153.936 Y162.88 E5.65649
G1 X153.246 Y162.354 E5.69256
G1 X152.867 Y161.992 E5.71435
G1 X152.252 Y161.257 E5.7542
G1 X151.878 Y160.669 E5.78317
G1 X151.663 Y160.253 E5.80264
G1 X151.397 Y159.589 E5.83238
G1 X151.198 Y158.877 E5.86311
G1 X151.094 Y158.255 E5.88933
G1 X151.058 Y157.622 E5.91569
G1 X151.082 Y156.85 E5.9478
G1 X151.185 Y156.221 E5.9743
G1 X151.371 Y155.475 E6.00626
G1 X151.512 Y155.09 E6.02331
G1 X151.85 Y154.38 E6.056
G1 X152.147 Y153.895 E6.07965
G1 X152.627 Y153.245 E6.11324
M204 S3000
G0 F15230.8 X152.333 Y152.973
M204 S6000
G1 F7884.3 X153 Y152.334 E6.15164
G1 X153.588 Y151.866 E6.18289
G1 X154.329 Y151.425 E6.21874
G1 X154.779 Y151.21 E6.23947
G1 X155.739 Y150.879 E6.28169
G1 X156.278 Y150.758 E6.30466
G1 X157.205 Y150.655 E6.34344
G1 X158.161 Y150.681 E6.3832
G1 X159.285 Y150.886 E6.4307
G1 X160.15 Y151.18 E6.46868
G1 X160.837 Y151.499 E6.50017
G1 X161.696 Y152.061 E6.54285
G1 X162.451 Y152.765 E6.58577
G1 X162.888 Y153.252 E6.61297
G1 X163.366 Y153.956 E6.64835
G1 X163.678 Y154.534 E6.67566
G1 X163.916 Y155.093 E6.70092
G1 X164.11 Y155.692 E6.72709
G1 X164.277 Y156.486 E6.76083
G1 X164.335 Y156.985 E6.78171
G1 X164.353 Y157.544 E6.80496
G1 X164.323 Y158.146 E6.83002
G1 X164.195 Y158.955 E6.86408
G1 X163.998 Y159.672 E6.89499
G1 X163.769 Y160.265 E6.92142
G1 X163.424 Y160.927 E6.95245
G1 X163.057 Y161.512 E6.98117
G1 X162.606 Y162.091 E7.01168
G1 X161.835 Y162.824 E7.05591
G1 X161.014 Y163.401 E7.09763
G1 X160.107 Y163.852 E7.13974
G1 X159.206 Y164.135 E7.179
G1 X158.456 Y164.285 E7.2108
G1 X157.825 Y164.336 E7.23712
G1 X156.815 Y164.336 E7.27911
G1 X155.752 Y164.141 E7.32405
G1 X155.012 Y163.883 E7.35663
G1 X154.214 Y163.513 E7.3932
G1 X153.703 Y163.205 E7.418
G1 X153.125 Y162.792 E7.44754
G1 X152.57 Y162.26 E7.4795
G1 X152.04 Y161.67 E7.51247
G1 X151.54 Y160.884 E7.5512
G1 X151.308 Y160.437 E7.57214
G1 X151.023 Y159.732 E7.60376
G1 X150.803 Y158.943 E7.63781
G1 X150.699 Y158.321 E7.66403
G1 X150.658 Y157.61 E7.69364
G1 X150.687 Y156.785 E7.72796
G1 X150.79 Y156.156 E7.75446
G1 X150.995 Y155.337 E7.78956
G1 X151.136 Y154.952 E7.8066
G1 X151.502 Y154.183 E7.84201
G1 X151.825 Y153.657 E7.86767
G1 X152.333 Y152.973 E7.9031
M204 S3000
G0 F15230.8 X152.031 Y152.71
M204 S6000
G1 F7884.3 X152.723 Y152.045 E7.943
G1 X153.37 Y151.53 E7.97738
G1 X154.124 Y151.081 E8.01386
G1 X154.607 Y150.849 E8.03614
G1 X155.651 Y150.489 E8.08205
G1 X156.234 Y150.36 E8.10688
G1 X157.161 Y150.257 E8.14565
G1 X158.233 Y150.287 E8.19024
G1 X159.357 Y150.492 E8.23774
G1 X160.319 Y150.817 E8.27996
G1 X161.034 Y151.15 E8.31275
G1 X161.739 Y151.612 E8.34779
G1 X162.119 Y151.908 E8.36782
G1 X162.724 Y152.472 E8.40221
G1 X163.207 Y153.009 E8.43223
G1 X163.697 Y153.731 E8.46851
G1 X164.046 Y154.377 E8.49904
G1 X164.297 Y154.97 E8.52581
G1 X164.545 Y155.735 E8.55924
G1 X164.674 Y156.44 E8.58904
G1 X164.735 Y156.972 E8.6113
G1 X164.753 Y157.564 E8.63593
G1 X164.723 Y158.166 E8.66099
G1 X164.581 Y159.061 E8.69866
G1 X164.384 Y159.778 E8.72958
G1 X164.124 Y160.45 E8.75953
G1 X163.763 Y161.14 E8.79191
G1 X163.373 Y161.758 E8.82229
G1 X163.064 Y162.155 E8.84321
G1 X162.714 Y162.539 E8.86481
G1 X162.087 Y163.134 E8.90075
G1 X161.222 Y163.743 E8.94473
G1 X160.251 Y164.226 E8.98981
G1 X159.326 Y164.517 E9.03013
G1 X158.522 Y164.68 E9.06424
G1 X157.857 Y164.735 E9.09198
G1 X156.773 Y164.734 E9.13705
G1 X155.643 Y164.527 E9.18481
G1 X154.88 Y164.261 E9.2184
G1 X154.008 Y163.856 E9.25837
G1 X153.47 Y163.53 E9.28453
G1 X152.871 Y163.101 E9.31516
G1 X152.293 Y162.549 E9.34839
G1 X151.919 Y162.134 E9.37161
G1 X151.576 Y161.687 E9.39504
G1 X151.202 Y161.099 E9.42401
G1 X150.942 Y160.599 E9.44744
G1 X150.649 Y159.875 E9.47991
G1 X150.408 Y159.009 E9.51729
G1 X150.304 Y158.387 E9.54351
G1 X150.258 Y157.596 E9.57645
G1 X150.292 Y156.72 E9.61289
G1 X150.395 Y156.091 E9.63939
G1 X150.619 Y155.199 E9.67763
G1 X150.76 Y154.814 E9.69468
G1 X151.154 Y153.985 E9.73284
G1 X151.487 Y153.442 E9.75932
G1 X152.031 Y152.71 E9.79724
M204 S3000
G0 F15230.8 X151.732 Y152.444
M204 S6000
G1 F7884.3 X152.474 Y151.732 E9.83999
G1 X153.145 Y151.198 E9.87564
G1 X153.919 Y150.737 E9.9131
G1 X154.434 Y150.488 E9.93688
G1 X155.565 Y150.098 E9.98662
G1 X156.19 Y149.962 E10.01321
G1 X157.117 Y149.859 E10.05199
G1 X158.305 Y149.893 E10.1014
G1 X159.429 Y150.098 E10.1489
G1 X160.488 Y150.454 E10.19535
G1 X161.231 Y150.801 E10.22944
G1 X161.985 Y151.296 E10.26694
G1 X162.392 Y151.615 E10.28844
G1 X162.997 Y152.179 E10.32283
G1 X163.522 Y152.761 E10.35542
G1 X164.028 Y153.506 E10.39286
G1 X164.398 Y154.187 E10.42508
G1 X164.678 Y154.847 E10.45489
G1 X164.931 Y155.629 E10.48906
G1 X165.071 Y156.394 E10.52139
G1 X165.135 Y156.96 E10.54507
G1 X165.153 Y157.584 E10.57103
G1 X165.123 Y158.186 E10.59609
G1 X164.967 Y159.167 E10.63738
G1 X164.77 Y159.884 E10.6683
G1 X164.497 Y160.594 E10.69992
G1 X164.101 Y161.353 E10.73551
G1 X163.689 Y162.004 E10.76754
G1 X163.38 Y162.401 E10.78846
G1 X163.01 Y162.808 E10.81133
G1 X162.34 Y163.444 E10.84974
G1 X161.43 Y164.086 E10.89604
G1 X160.392 Y164.602 E10.94423
G1 X159.446 Y164.899 E10.98545
G1 X158.588 Y165.075 E11.02187
G1 X157.89 Y165.134 E11.05099
G1 X156.723 Y165.132 E11.09951
G1 X155.788 Y164.961 E11.13903
G1 X155.275 Y164.823 E11.16111
G1 X154.748 Y164.639 E11.18432
G1 X153.84 Y164.219 E11.22591
G1 X153.237 Y163.855 E11.2552
G1 X152.615 Y163.409 E11.28702
G1 X151.996 Y162.817 E11.32263
G1 X151.602 Y162.378 E11.34715
G1 X151.238 Y161.902 E11.37206
G1 X150.864 Y161.314 E11.40104
G1 X150.587 Y160.784 E11.4259
G1 X150.275 Y160.018 E11.46029
G1 X150.013 Y159.075 E11.50098
G1 X149.909 Y158.453 E11.52719
G1 X149.858 Y157.58 E11.56355
G1 X149.892 Y156.704 E11.6
G1 X150 Y156.026 E11.62854
G1 X150.243 Y155.061 E11.66991
G1 X150.384 Y154.676 E11.68696
G1 X150.793 Y153.813 E11.72667
G1 X151.149 Y153.227 E11.75517
G1 X151.732 Y152.444 E11.79576
M204 S3000
G1 F8700 E8.29576
;MESH:Cylinder-10k-Poly.stl
G0 F15230.8 X153.796 Y154.698
G0 X153.583 Y156.094
G0 X153.302 Y156
M204 S6000
;TYPE:WALL-INNER
G1 F8400 E11.79576
G1 F7884.3 X153.282 Y156.009 E11.79667
G1 X153.144 Y156.524 E11.81884
G1 X153.085 Y156.858 E11.83294
G1 X153.049 Y157.192 E11.8469
G1 X153.038 Y157.514 E11.8603
G1 X153.049 Y157.809 E11.87257
G1 X153.087 Y158.154 E11.887
G1 X153.149 Y158.5 E11.90162
G1 X153.225 Y158.778 E11.9136
G1 X153.315 Y159.043 E11.92523
G1 X153.307 Y159.057 E11.9259
G1 X153.448 Y159.373 E11.94029
G1 X153.598 Y159.668 E11.95405
G1 X153.779 Y159.966 E11.96855
G1 X153.947 Y160.2 E11.98052
G1 X154.156 Y160.453 E11.99417
G1 X154.386 Y160.695 E12.00805
G1 X154.622 Y160.911 E12.02135
G1 X154.867 Y161.104 E12.03431
G1 X155.135 Y161.285 E12.04776
G1 X155.417 Y161.447 E12.06128
G1 X155.701 Y161.582 E12.07435
G1 X156.006 Y161.704 E12.08801
G1 X156.319 Y161.803 E12.10166
G1 X156.637 Y161.878 E12.11524
G1 X156.989 Y161.936 E12.13007
G1 X157.267 Y161.957 E12.14167
G1 X157.593 Y161.961 E12.15522
G1 X157.889 Y161.945 E12.16754
G1 X158.234 Y161.901 E12.182
G1 X158.552 Y161.838 E12.19548
G1 X158.852 Y161.753 E12.20844
G1 X159.152 Y161.646 E12.22169
G1 X159.451 Y161.513 E12.23529
G1 X159.743 Y161.357 E12.24906
G1 X160.019 Y161.182 E12.26264
G1 X160.27 Y160.998 E12.27558
G1 X160.513 Y160.79 E12.28888
G1 X160.75 Y160.556 E12.30273
G1 X160.958 Y160.32 E12.31581
G1 X161.153 Y160.063 E12.32922
G1 X161.329 Y159.79 E12.34272
G1 X161.484 Y159.508 E12.3561
G1 X161.618 Y159.218 E12.36938
G1 X161.732 Y158.914 E12.38288
G1 X161.824 Y158.6 E12.39648
G1 X161.893 Y158.281 E12.41005
G1 X161.937 Y157.973 E12.42299
G1 X161.958 Y157.673 E12.43549
G1 X161.958 Y157.32 E12.45017
G1 X161.936 Y157.017 E12.4628
G1 X161.887 Y156.689 E12.47659
G1 X161.817 Y156.37 E12.49016
G1 X161.722 Y156.057 E12.50376
G1 X161.612 Y155.766 E12.5167
G1 X161.474 Y155.471 E12.53024
G1 X161.318 Y155.192 E12.54353
G1 X161.135 Y154.914 E12.55736
G1 X160.951 Y154.67 E12.57007
G1 X160.73 Y154.423 E12.58385
G1 X160.496 Y154.193 E12.59749
G1 X160.262 Y153.996 E12.61021
G1 X159.994 Y153.799 E12.62404
G1 X159.725 Y153.633 E12.63718
G1 X159.429 Y153.477 E12.65109
G1 X159.143 Y153.351 E12.66408
G1 X158.853 Y153.248 E12.67688
G1 X158.528 Y153.157 E12.69091
G1 X158.221 Y153.097 E12.70391
G1 X157.889 Y153.055 E12.71783
G1 X157.567 Y153.039 E12.73123
G1 X157.247 Y153.045 E12.74454
G1 X156.928 Y153.075 E12.75786
G1 X156.579 Y153.131 E12.77255
G1 X156.3 Y153.202 E12.78452
G1 X155.988 Y153.302 E12.79814
G1 X155.692 Y153.421 E12.81141
G1 X155.405 Y153.561 E12.82468
G1 X155.138 Y153.716 E12.83752
G1 X154.856 Y153.904 E12.85161
G1 X154.61 Y154.101 E12.86471
G1 X154.365 Y154.327 E12.87857
G1 X154.139 Y154.565 E12.89222
G1 X153.946 Y154.802 E12.90492
G1 X153.755 Y155.073 E12.91871
G1 X153.589 Y155.353 E12.93224
G1 X153.445 Y155.638 E12.94551
G1 X153.302 Y156 E12.9617
M204 S3000
G0 F15230.8 X152.93 Y155.853
M204 S6000
;TYPE:WALL-OUTER
G1 F5850 X152.907 Y155.863 E12.96274
G1 X152.753 Y156.437 E12.98745
G1 X152.689 Y156.802 E13.00285
G1 X152.649 Y157.164 E13.018
G1 X152.638 Y157.515 E13.0326
G1 X152.65 Y157.838 E13.04603
G1 X152.691 Y158.211 E13.06163
G1 X152.759 Y158.589 E13.0776
G1 X152.843 Y158.895 E13.0908
G1 X152.936 Y159.171 E13.1029
G1 X152.926 Y159.187 E13.10369
G1 X153.087 Y159.545 E13.12001
G1 X153.248 Y159.863 E13.13483
G1 X153.445 Y160.187 E13.15059
G1 X153.63 Y160.444 E13.16376
G1 X153.856 Y160.719 E13.17856
G1 X154.106 Y160.981 E13.19361
G1 X154.363 Y161.216 E13.20809
G1 X154.631 Y161.427 E13.22227
G1 X154.923 Y161.625 E13.23694
G1 X155.231 Y161.801 E13.25169
G1 X155.541 Y161.949 E13.26597
G1 X155.871 Y162.081 E13.28075
G1 X156.213 Y162.189 E13.29566
G1 X156.559 Y162.27 E13.31043
G1 X156.941 Y162.334 E13.32653
G1 X157.249 Y162.357 E13.33937
